X:1
T:Title
%%score [ ( 1 2 ) ( 3 4 ) ]
L:1/8
M:4/4
K:C
V:1 treble nm=" " snm=" "
V:2 treble 
V:3 bass nm="Midi_74"
V:4 bass 
V:1
[K:Bb]"^Isaac Watts\n(1674-1748)" D2 DD F2 F2 |"^NEH 349 Come, let us join" B2 B2 d3 c | %2
w: Come, let us join our|cheer- ful songs with|
w: ||
w: Je- sus is wor- thy|to re- ceive ho-|
 B2 G2 G2"^Henry Lahee\n(1826-1912)" c2 | (B4 A2) ||[M:4/4] F2 | G2 A2 B2 F2 | G2 A2 B2 c2 | %7
w: an- gels round the|throne; *|ten|thou- sand thou- sand|are their tongues, but|
w: |||||
w: nour and pow'r di-|vine; *|and|bless- ings more than|we can give be,|
 d2 d2 c2 c2 | B8 |] %9
w: all their joys are|one.|
w: ||
w: Lord, for ev- er|thine.|
V:2
[K:Bb] B,2 B,B, C2 C2 | D2 D2 D3 D | D2 D2 E2 G2 | F6 ||[M:4/4] F2 | E2 E2 F2 F2 | F2 E2 D2 F2 | %7
w: |||||||
w: "Wor- thy the Lamb that|died," they cry, "To|be ex- alt- ed|thus;"|"Wor-|thy the Lamb," our|lips re- ply, "for|
w: |||||||
w: Let all cre- a- tion|join in one to|bless the sa- cred|name|of|him that sits up-|on the throne, and|
 F2 F2 G2 FE | D8 |] %9
w: ||
w: he was slain for *|us."|
w: ||
w: to a- dore the *|Lamb.|
V:3
[K:Bb] F,2 F,F, F,2 C2 | B,2 B,2 A,3 A, | B,2 B,2 B,2 E2 | (D4 C2) ||[M:4/4] B,2 | B,2 C2 F,2 D2 | %6
 B,2 C2 B,2 A,2 | B,2 B,2 B,2 A,2 | B,8 |] %9
V:4
[K:Bb] B,,2 B,,B,, A,,2 A,2 | G,2 G,2 ^F,3 F, | G,2 G,2 E,2 E,2 | F,6 ||[M:4/4] D,2 | %5
 E,2 C,2 D,2 B,,2 | E,2 C,2 G,2 F,2 | B,2 D,2 E,2 F,2 | B,,8 |] %9

